src/images/boarding-pass/test.svg

<svg height="360" viewBox="0 0 950 360" width="950" xmlns="http://www.w3.org/2000/svg" xmlns:xlink="http://www.w3.org/1999/xlink"><defs><path id="a" d="m663 310h-643c-11.045695 0-20-8.954305-20-20v-270c0-11.045695 8.954305-20 20-20h643c0 2.28277697 1.790861 4.13333333 4 4.13333333s4-1.85055636 4-4.13333333h209c11.045695 0 20 8.954305 20 20v270c0 11.045695-8.954305 20-20 20h-209c0-2.282777-1.790861-4.133333-4-4.133333s-4 1.850556-4 4.133333zm4-285.2c2.209139 0 4-1.8505564 4-4.1333333 0-2.282777-1.790861-4.1333334-4-4.1333334s-4 1.8505564-4 4.1333334c0 2.2827769 1.790861 4.1333333 4 4.1333333zm0 20.6666667c2.209139 0 4-1.8505564 4-4.1333334 0-2.2827769-1.790861-4.1333333-4-4.1333333s-4 1.8505564-4 4.1333333c0 2.282777 1.790861 4.1333334 4 4.1333334zm0 20.6666666c2.209139 0 4-1.8505563 4-4.1333333s-1.790861-4.1333333-4-4.1333333-4 1.8505563-4 4.1333333 1.790861 4.1333333 4 4.1333333zm0 20.6666667c2.209139 0 4-1.8505564 4-4.1333333 0-2.282777-1.790861-4.1333334-4-4.1333334s-4 1.8505564-4 4.1333334c0 2.2827769 1.790861 4.1333333 4 4.1333333zm0 20.666667c2.209139 0 4-1.850557 4-4.133334s-1.790861-4.133333-4-4.133333-4 1.850556-4 4.133333 1.790861 4.133334 4 4.133334zm0 20.666666c2.209139 0 4-1.850556 4-4.133333s-1.790861-4.133333-4-4.133333-4 1.850556-4 4.133333 1.790861 4.133333 4 4.133333zm0 20.666667c2.209139 0 4-1.850556 4-4.133333s-1.790861-4.133334-4-4.133334-4 1.850557-4 4.133334 1.790861 4.133333 4 4.133333zm0 20.666667c2.209139 0 4-1.850557 4-4.133334s-1.790861-4.133333-4-4.133333-4 1.850556-4 4.133333 1.790861 4.133334 4 4.133334zm0 20.666666c2.209139 0 4-1.850556 4-4.133333s-1.790861-4.133333-4-4.133333-4 1.850556-4 4.133333 1.790861 4.133333 4 4.133333zm0 20.666667c2.209139 0 4-1.850556 4-4.133333s-1.790861-4.133334-4-4.133334-4 1.850557-4 4.133334 1.790861 4.133333 4 4.133333zm0 20.666667c2.209139 0 4-1.850557 4-4.133334s-1.790861-4.133333-4-4.133333-4 1.850556-4 4.133333 1.790861 4.133334 4 4.133334zm0 20.666666c2.209139 0 4-1.850556 4-4.133333s-1.790861-4.133333-4-4.133333-4 1.850556-4 4.133333 1.790861 4.133333 4 4.133333zm0 20.666667c2.209139 0 4-1.850556 4-4.133333s-1.790861-4.133334-4-4.133334-4 1.850557-4 4.133334 1.790861 4.133333 4 4.133333zm0 20.666667c2.209139 0 4-1.850557 4-4.133334s-1.790861-4.133333-4-4.133333-4 1.850556-4 4.133333 1.790861 4.133334 4 4.133334z"/><filter id="b" height="125.5%" width="108.8%" x="-4.4%" y="-11.5%"><feOffset dy="1" in="SourceAlpha" result="shadowOffsetOuter1"/><feGaussianBlur in="shadowOffsetOuter1" result="shadowBlurOuter1" stdDeviation="2.5"/><feColorMatrix in="shadowBlurOuter1" result="shadowMatrixOuter1" values="0 0 0 0 0 0 0 0 0 0 0 0 0 0 0 0 0 0 0.5 0"/><feOffset dy="4" in="SourceAlpha" result="shadowOffsetOuter2"/><feGaussianBlur in="shadowOffsetOuter2" result="shadowBlurOuter2" stdDeviation="12.5"/><feColorMatrix in="shadowBlurOuter2" result="shadowMatrixOuter2" values="0 0 0 0 0 0 0 0 0 0 0 0 0 0 0 0 0 0 0.255381337 0"/><feMerge><feMergeNode in="shadowMatrixOuter1"/><feMergeNode in="shadowMatrixOuter2"/></feMerge></filter><linearGradient id="c" x1="50%" x2="50%" y1="0%" y2="100%"><stop offset="0" stop-color="#32537a"/><stop offset="1" stop-color="#223146"/></linearGradient><mask id="d" fill="#fff"><use fill="#fff" fill-rule="evenodd" xlink:href="#a"/></mask></defs><g fill="none" fill-rule="evenodd" transform="translate(25 21)"><use fill="#000" filter="url(#b)" xlink:href="#a"/><use fill="#fff" xlink:href="#a"/><path d="m0 0h900v110h-900z" fill="url(#c)" mask="url(#d)"/><path d="m0 30h10v80h-10z" fill="#ff930f" mask="url(#d)"/></g></svg>

<svg xmlns="http://www.w3.org/2000/svg" xmlns:xlink="http://www.w3.org/1999/xlink" width="950" height="360" viewBox="0 0 950 360">
  <defs>
    <path id="a" d="M663,310 L20,310 C8.954305,310 1.3527075e-15,301.045695 0,290 L0,20 C-1.3527075e-15,8.954305 8.954305,2.02906125e-15 20,6.31088724e-30 L663,6.31088724e-30 C663,2.28277697 664.790861,4.13333333 667,4.13333333 C669.209139,4.13333333 671,2.28277697 671,8.8817842e-16 L880,6.31088724e-30 C891.045695,-2.02906125e-15 900,8.954305 900,20 L900,290 C900,301.045695 891.045695,310 880,310 L671,310 C671,307.717223 669.209139,305.866667 667,305.866667 C664.790861,305.866667 663,307.717223 663,310 Z M667,24.8 C669.209139,24.8 671,22.9494436 671,20.6666667 C671,18.3838897 669.209139,16.5333333 667,16.5333333 C664.790861,16.5333333 663,18.3838897 663,20.6666667 C663,22.9494436 664.790861,24.8 667,24.8 Z M667,45.4666667 C669.209139,45.4666667 671,43.6161103 671,41.3333333 C671,39.0505564 669.209139,37.2 667,37.2 C664.790861,37.2 663,39.0505564 663,41.3333333 C663,43.6161103 664.790861,45.4666667 667,45.4666667 Z M667,66.1333333 C669.209139,66.1333333 671,64.282777 671,62 C671,59.717223 669.209139,57.8666667 667,57.8666667 C664.790861,57.8666667 663,59.717223 663,62 C663,64.282777 664.790861,66.1333333 667,66.1333333 Z M667,86.8 C669.209139,86.8 671,84.9494436 671,82.6666667 C671,80.3838897 669.209139,78.5333333 667,78.5333333 C664.790861,78.5333333 663,80.3838897 663,82.6666667 C663,84.9494436 664.790861,86.8 667,86.8 Z M667,107.466667 C669.209139,107.466667 671,105.61611 671,103.333333 C671,101.050556 669.209139,99.2 667,99.2 C664.790861,99.2 663,101.050556 663,103.333333 C663,105.61611 664.790861,107.466667 667,107.466667 Z M667,128.133333 C669.209139,128.133333 671,126.282777 671,124 C671,121.717223 669.209139,119.866667 667,119.866667 C664.790861,119.866667 663,121.717223 663,124 C663,126.282777 664.790861,128.133333 667,128.133333 Z M667,148.8 C669.209139,148.8 671,146.949444 671,144.666667 C671,142.38389 669.209139,140.533333 667,140.533333 C664.790861,140.533333 663,142.38389 663,144.666667 C663,146.949444 664.790861,148.8 667,148.8 Z M667,169.466667 C669.209139,169.466667 671,167.61611 671,165.333333 C671,163.050556 669.209139,161.2 667,161.2 C664.790861,161.2 663,163.050556 663,165.333333 C663,167.61611 664.790861,169.466667 667,169.466667 Z M667,190.133333 C669.209139,190.133333 671,188.282777 671,186 C671,183.717223 669.209139,181.866667 667,181.866667 C664.790861,181.866667 663,183.717223 663,186 C663,188.282777 664.790861,190.133333 667,190.133333 Z M667,210.8 C669.209139,210.8 671,208.949444 671,206.666667 C671,204.38389 669.209139,202.533333 667,202.533333 C664.790861,202.533333 663,204.38389 663,206.666667 C663,208.949444 664.790861,210.8 667,210.8 Z M667,231.466667 C669.209139,231.466667 671,229.61611 671,227.333333 C671,225.050556 669.209139,223.2 667,223.2 C664.790861,223.2 663,225.050556 663,227.333333 C663,229.61611 664.790861,231.466667 667,231.466667 Z M667,252.133333 C669.209139,252.133333 671,250.282777 671,248 C671,245.717223 669.209139,243.866667 667,243.866667 C664.790861,243.866667 663,245.717223 663,248 C663,250.282777 664.790861,252.133333 667,252.133333 Z M667,272.8 C669.209139,272.8 671,270.949444 671,268.666667 C671,266.38389 669.209139,264.533333 667,264.533333 C664.790861,264.533333 663,266.38389 663,268.666667 C663,270.949444 664.790861,272.8 667,272.8 Z M667,293.466667 C669.209139,293.466667 671,291.61611 671,289.333333 C671,287.050556 669.209139,285.2 667,285.2 C664.790861,285.2 663,287.050556 663,289.333333 C663,291.61611 664.790861,293.466667 667,293.466667 Z"/>
    <filter id="b" width="108.8%" height="125.5%" x="-4.4%" y="-11.5%" filterUnits="objectBoundingBox">
      <feOffset dy="1" in="SourceAlpha" result="shadowOffsetOuter1"/>
      <feGaussianBlur in="shadowOffsetOuter1" result="shadowBlurOuter1" stdDeviation="2.5"/>
      <feColorMatrix in="shadowBlurOuter1" result="shadowMatrixOuter1" values="0 0 0 0 0 0 0 0 0 0 0 0 0 0 0 0 0 0 0.5 0"/>
      <feOffset dy="4" in="SourceAlpha" result="shadowOffsetOuter2"/>
      <feGaussianBlur in="shadowOffsetOuter2" result="shadowBlurOuter2" stdDeviation="12.5"/>
      <feColorMatrix in="shadowBlurOuter2" result="shadowMatrixOuter2" values="0 0 0 0 0 0 0 0 0 0 0 0 0 0 0 0 0 0 0.255381337 0"/>
      <feMerge>
        <feMergeNode in="shadowMatrixOuter1"/>
        <feMergeNode in="shadowMatrixOuter2"/>
      </feMerge>
    </filter>
    <linearGradient id="c" x1="50%" x2="50%" y1="0%" y2="100%">
      <stop offset="0%" stop-color="#32537A"/>
      <stop offset="100%" stop-color="#223146"/>
    </linearGradient>
  </defs>
  <g fill="none" fill-rule="evenodd" transform="translate(25 21)">
    <mask id="d" fill="white">
      <use xlink:href="#a"/>
    </mask>
    <use fill="black" filter="url(#b)" xlink:href="#a"/>
    <use fill="#FFFFFF" xlink:href="#a"/>
    <rect width="900" height="110" fill="url(#c)" mask="url(#d)"/>
    <rect width="10" height="80" y="30" fill="#FF930F" mask="url(#d)"/>
  </g>
</svg>
